art/standard/gamepad/luna/rightshoulder.svg

<svg width="100px" height="100px" preserveAspectRatio="none" version="1.1" viewBox="0 0 100 100" xmlns="http://www.w3.org/2000/svg">
 <g id="Luna">
  <g>
   <g>
    <path d="m90.05 58.1c3.5333-11.667 2.7-21.967-2.5-30.9-2.2667-3.9-5.85-5.85-10.75-5.85-15.633 4.3333-35.5 7.4-59.6 9.2-6.8 0.9-9.8833 5-9.25 12.3 0.36667 4.4 0.55 13.233 0.55 26.5 0.46667 6.5333 3.7167 9.6167 9.75 9.25 23.333-1.6667 43.917-4.8 61.75-9.4 5.1-2.1 8.45-5.8 10.05-11.1" fill="#313131"/>
    <path d="m77.892 30.038s-30.732 7.6646-57.794 9.0583l0.5 30.931s19.276 0.98308 58.882-9.0053c8.5229-13.749 3.9981-23.636-1.5877-30.984z" fill="#4f4f4f"/>
    <path d="m59.75 42.5-4.85 0.6v14.85l5.35-0.7q0.85-0.1 1.75-0.4 0.8-0.3 1.5-0.9t1.15-1.4q0.5-0.85 0.5-2.05 0-0.7-0.25-1.3-0.2-0.6-0.55-1.05-0.4-0.4-0.9-0.65-0.55-0.2-1.15-0.25v-0.05q1-0.45 1.6-1.4 0.6-0.85 0.6-2.15 0-1.2-0.4-1.9-0.4-0.65-1.1-1-0.65-0.35-1.55-0.4-0.85 0.05-1.7 0.15m-1.95 6.2v-3.2l1.9-0.25q0.35-0.05 0.7-0.05 0.35 0.05 0.65 0.15 0.25 0.2 0.4 0.45 0.2 0.3 0.2 0.75t-0.15 0.75q-0.15 0.4-0.45 0.55-0.25 0.25-0.55 0.4t-0.65 0.15l-2.05 0.3m4.25 3q0.2 0.25 0.2 0.8 0 0.45-0.2 0.85-0.15 0.35-0.4 0.6t-0.6 0.35q-0.35 0.15-0.7 0.2l-2.55 0.35v-3.4l2.15-0.3q0.35-0.05 0.75-0.05t0.75 0.15 0.6 0.45m-12.1-7.75q-0.9-0.1-1.9 0l-5 0.65v14.85l2.85-0.35v-5.95l1.4-0.2 2.7 5.6 3.45-0.4-3.3-5.9q1.4-0.45 2.1-1.65t0.7-2.75q0-1.3-0.4-2.15-0.4-0.8-1.05-1.2-0.65-0.5-1.55-0.55m-4.05 3.05 1.9-0.25q0.35-0.05 0.8-0.05 0.35 0 0.7 0.15 0.3 0.15 0.5 0.45t0.2 0.85q0 0.65-0.25 1-0.2 0.4-0.55 0.55-0.35 0.2-0.8 0.3-0.45 0.15-0.85 0.2l-1.65 0.2z" fill="#999"/>
   </g>
   <g>
    <path d="m20.25 68.75-0.5-26.75c-0.03333-1.7333 0.8-2.7167 2.5-2.95 22.367-1.7667 40.933-4.8 55.7-9.1 1.9975 2.1252 3.3756 4.6941 4.35 7.45 1.2667 3.4 1.6333 7.3833 1.1 11.95-0.75494 6.417-2.6948 10.7-5.25 11.6-16.3 4.4667-35.033 7.5-56.2 9.1-1.0882 0.04106-1.5768-0.5814-1.7-1.3z" fill="none" stroke="#626262" stroke-linecap="round" stroke-linejoin="round" stroke-width="4"/>
   </g>
   <path d="m76.8 21.35q7.35 0 10.75 5.85 7.8 13.4 2.5 30.9-2.4 7.95-10.05 11.1-26.75 6.9-61.75 9.4-9.05 0.55-9.75-9.25 0-19.9-0.55-26.5-0.95-10.95 9.25-12.3 36.15-2.7 59.6-9.2z" fill="none" stroke="#1b1b1b" stroke-linecap="round" stroke-linejoin="round" stroke-width="5"/>
  </g>
 </g>
</svg>

<svg xmlns="http://www.w3.org/2000/svg" version="1.1" xmlns:xlink="http://www.w3.org/1999/xlink" preserveAspectRatio="none" x="0px" y="0px" width="100px" height="100px" viewBox="0 0 100 100">
<defs/>

<g id="Luna">
<g>
<g>
<g>
<path fill="#313131" stroke="none" d="
M 90.05 58.1
Q 95.35 40.6 87.55 27.2 84.15 21.35 76.8 21.35 53.35 27.85 17.2 30.55 7 31.9 7.95 42.85 8.5 49.45 8.5 69.35 9.2 79.15 18.25 78.6 53.25 76.1 80 69.2 87.65 66.05 90.05 58.1
M 82.3 37.4
Q 84.2 42.5 83.4 49.35 82.55 56.2 80.3 59.05 80.35 59.75 78.15 60.95 53.7 67.65 21.95 70.05
L 22 70
Q 21.35 70.05 20.95 69.8 20.4 69.45 20.25 68.75 20.25 48.75 19.75 42.05
L 19.75 42
Q 19.7 39.4 22.25 39.05 55.8 36.4 77.95 29.95 78 29.95 78.45 30.45 80.5 32.65 82.3 37.4
M 22 70
L 21.95 70.05
Q 53.7 67.65 78.15 60.95 80.35 59.75 80.3 59.05 80.25 59.7 77.95 60.95 53 67.3 20.95 69.8 21.35 70.05 22 70 Z"/>

<path fill="#4F4F4F" stroke="none" d="
M 83.4 49.35
Q 84.2 42.5 82.3 37.4 80.5 32.65 78.45 30.45 78 29.95 77.95 29.95 55.8 36.4 22.25 39.05 19.7 39.4 19.75 42
L 19.75 42.05
Q 20.25 48.75 20.25 68.75 20.4 69.45 20.95 69.8 53 67.3 77.95 60.95 80.25 59.7 80.3 59.05 82.55 56.2 83.4 49.35
M 48.05 43.95
Q 49.05 43.85 49.95 43.95 50.85 44 51.5 44.5 52.15 44.9 52.55 45.7 52.95 46.55 52.95 47.85 52.95 49.4 52.25 50.6 51.55 51.8 50.15 52.25
L 53.45 58.15 50 58.55 47.3 52.95 45.9 53.15 45.9 59.1 43.05 59.45 43.05 44.6 48.05 43.95
M 54.9 43.1
L 59.75 42.5
Q 60.6 42.4 61.45 42.35 62.35 42.4 63 42.75 63.7 43.1 64.1 43.75 64.5 44.45 64.5 45.65 64.5 46.95 63.9 47.8 63.3 48.75 62.3 49.2
L 62.3 49.25
Q 62.9 49.3 63.45 49.5 63.95 49.75 64.35 50.15 64.7 50.6 64.9 51.2 65.15 51.8 65.15 52.5 65.15 53.7 64.65 54.55 64.2 55.35 63.5 55.95 62.8 56.55 62 56.85 61.1 57.15 60.25 57.25
L 54.9 57.95 54.9 43.1
M 62.25 52.5
Q 62.25 51.95 62.05 51.7 61.8 51.4 61.45 51.25 61.1 51.1 60.7 51.1 60.3 51.1 59.95 51.15
L 57.8 51.45 57.8 54.85 60.35 54.5
Q 60.7 54.45 61.05 54.3 61.4 54.2 61.65 53.95 61.9 53.7 62.05 53.35 62.25 52.95 62.25 52.5
M 57.8 45.5
L 57.8 48.7 59.85 48.4
Q 60.2 48.4 60.5 48.25 60.8 48.1 61.05 47.85 61.35 47.7 61.5 47.3 61.65 47 61.65 46.55 61.65 46.1 61.45 45.8 61.3 45.55 61.05 45.35 60.75 45.25 60.4 45.2 60.05 45.2 59.7 45.25
L 57.8 45.5
M 47.8 46.75
L 45.9 47 45.9 50.4 47.55 50.2
Q 47.95 50.15 48.4 50 48.85 49.9 49.2 49.7 49.55 49.55 49.75 49.15 50 48.8 50 48.15 50 47.6 49.8 47.3 49.6 47 49.3 46.85 48.95 46.7 48.6 46.7 48.15 46.7 47.8 46.75 Z"/>

<path fill="#999999" stroke="none" d="
M 59.75 42.5
L 54.9 43.1 54.9 57.95 60.25 57.25
Q 61.1 57.15 62 56.85 62.8 56.55 63.5 55.95 64.2 55.35 64.65 54.55 65.15 53.7 65.15 52.5 65.15 51.8 64.9 51.2 64.7 50.6 64.35 50.15 63.95 49.75 63.45 49.5 62.9 49.3 62.3 49.25
L 62.3 49.2
Q 63.3 48.75 63.9 47.8 64.5 46.95 64.5 45.65 64.5 44.45 64.1 43.75 63.7 43.1 63 42.75 62.35 42.4 61.45 42.35 60.6 42.4 59.75 42.5
M 57.8 48.7
L 57.8 45.5 59.7 45.25
Q 60.05 45.2 60.4 45.2 60.75 45.25 61.05 45.35 61.3 45.55 61.45 45.8 61.65 46.1 61.65 46.55 61.65 47 61.5 47.3 61.35 47.7 61.05 47.85 60.8 48.1 60.5 48.25 60.2 48.4 59.85 48.4
L 57.8 48.7
M 62.05 51.7
Q 62.25 51.95 62.25 52.5 62.25 52.95 62.05 53.35 61.9 53.7 61.65 53.95 61.4 54.2 61.05 54.3 60.7 54.45 60.35 54.5
L 57.8 54.85 57.8 51.45 59.95 51.15
Q 60.3 51.1 60.7 51.1 61.1 51.1 61.45 51.25 61.8 51.4 62.05 51.7
M 49.95 43.95
Q 49.05 43.85 48.05 43.95
L 43.05 44.6 43.05 59.45 45.9 59.1 45.9 53.15 47.3 52.95 50 58.55 53.45 58.15 50.15 52.25
Q 51.55 51.8 52.25 50.6 52.95 49.4 52.95 47.85 52.95 46.55 52.55 45.7 52.15 44.9 51.5 44.5 50.85 44 49.95 43.95
M 45.9 47
L 47.8 46.75
Q 48.15 46.7 48.6 46.7 48.95 46.7 49.3 46.85 49.6 47 49.8 47.3 50 47.6 50 48.15 50 48.8 49.75 49.15 49.55 49.55 49.2 49.7 48.85 49.9 48.4 50 47.95 50.15 47.55 50.2
L 45.9 50.4 45.9 47 Z"/>
</g>
</g>

<g>
<path stroke="#626262" stroke-width="4" stroke-linejoin="round" stroke-linecap="round" fill="none" d="
M 80.3 59.05
Q 82.55 56.2 83.4 49.35 84.2 42.5 82.3 37.4 80.5 32.65 78.45 30.45 78 29.95 77.95 29.95 55.8 36.4 22.25 39.05 19.7 39.4 19.75 42
L 19.75 42.05
Q 20.25 48.75 20.25 68.75 20.4 69.45 20.95 69.8
M 80.3 59.05
Q 80.35 59.75 78.15 60.95 53.7 67.65 21.95 70.05
L 22 70
Q 21.35 70.05 20.95 69.8"/>
</g>

<g>
<path stroke="#1B1B1B" stroke-width="5" stroke-linejoin="round" stroke-linecap="round" fill="none" d="
M 76.8 21.35
Q 84.15 21.35 87.55 27.2 95.35 40.6 90.05 58.1 87.65 66.05 80 69.2 53.25 76.1 18.25 78.6 9.2 79.15 8.5 69.35 8.5 49.45 7.95 42.85 7 31.9 17.2 30.55 53.35 27.85 76.8 21.35 Z"/>
</g>
</g>
</g>
</svg>
